groups/aromatics/mesityl.svg

<?xml version='1.0' encoding='iso-8859-1'?>
<svg version='1.1' baseProfile='full'
              xmlns='http://www.w3.org/2000/svg'
                      xmlns:rdkit='http://www.rdkit.org/xml'
                      xmlns:xlink='http://www.w3.org/1999/xlink'
                  xml:space='preserve'
width='256px' height='256px' viewBox='0 0 256 256'>
<!-- END OF HEADER -->
<rect style='opacity:1.0;fill:#FFFFFF;stroke:none' width='256.0' height='256.0' x='0.0' y='0.0'> </rect>
<path class='bond-0 atom-0 atom-1' d='M 205.3,97.1 L 166.0,119.7' style='fill:none;fill-rule:evenodd;stroke:#000000;stroke-width:2.0px;stroke-linecap:butt;stroke-linejoin:miter;stroke-opacity:1' />
<path class='bond-1 atom-1 atom-2' d='M 166.0,119.7 L 166.0,164.9' style='fill:none;fill-rule:evenodd;stroke:#000000;stroke-width:2.0px;stroke-linecap:butt;stroke-linejoin:miter;stroke-opacity:1' />
<path class='bond-1 atom-1 atom-2' d='M 159.2,123.6 L 159.2,161.0' style='fill:none;fill-rule:evenodd;stroke:#000000;stroke-width:2.0px;stroke-linecap:butt;stroke-linejoin:miter;stroke-opacity:1' />
<path class='bond-2 atom-2 atom-3' d='M 166.0,164.9 L 195.5,182.0' style='fill:none;fill-rule:evenodd;stroke:#000000;stroke-width:2.0px;stroke-linecap:butt;stroke-linejoin:miter;stroke-opacity:1' />
<path class='bond-3 atom-2 atom-4' d='M 166.0,164.9 L 126.8,187.5' style='fill:none;fill-rule:evenodd;stroke:#000000;stroke-width:2.0px;stroke-linecap:butt;stroke-linejoin:miter;stroke-opacity:1' />
<path class='bond-4 atom-4 atom-5' d='M 126.8,187.5 L 87.6,164.9' style='fill:none;fill-rule:evenodd;stroke:#000000;stroke-width:2.0px;stroke-linecap:butt;stroke-linejoin:miter;stroke-opacity:1' />
<path class='bond-4 atom-4 atom-5' d='M 126.8,179.7 L 94.4,160.9' style='fill:none;fill-rule:evenodd;stroke:#000000;stroke-width:2.0px;stroke-linecap:butt;stroke-linejoin:miter;stroke-opacity:1' />
<path class='bond-5 atom-5 atom-6' d='M 87.6,164.9 L 58.0,181.9' style='fill:none;fill-rule:evenodd;stroke:#000000;stroke-width:2.0px;stroke-linecap:butt;stroke-linejoin:miter;stroke-opacity:1' />
<path class='bond-6 atom-5 atom-7' d='M 87.6,164.9 L 87.6,119.6' style='fill:none;fill-rule:evenodd;stroke:#000000;stroke-width:2.0px;stroke-linecap:butt;stroke-linejoin:miter;stroke-opacity:1' />
<path class='bond-7 atom-7 atom-8' d='M 87.6,119.6 L 126.9,97.0' style='fill:none;fill-rule:evenodd;stroke:#000000;stroke-width:2.0px;stroke-linecap:butt;stroke-linejoin:miter;stroke-opacity:1' />
<path class='bond-7 atom-7 atom-8' d='M 94.4,123.5 L 126.9,104.8' style='fill:none;fill-rule:evenodd;stroke:#000000;stroke-width:2.0px;stroke-linecap:butt;stroke-linejoin:miter;stroke-opacity:1' />
<path class='bond-8 atom-8 atom-9' d='M 126.9,97.0 L 126.9,66.8' style='fill:none;fill-rule:evenodd;stroke:#000000;stroke-width:2.0px;stroke-linecap:butt;stroke-linejoin:miter;stroke-opacity:1' />
<path class='bond-9 atom-8 atom-1' d='M 126.9,97.0 L 166.0,119.7' style='fill:none;fill-rule:evenodd;stroke:#000000;stroke-width:2.0px;stroke-linecap:butt;stroke-linejoin:miter;stroke-opacity:1' />
<path d='M 128.7,186.4 L 126.8,187.5 L 124.8,186.4' style='fill:none;stroke:#000000;stroke-width:2.0px;stroke-linecap:butt;stroke-linejoin:miter;stroke-miterlimit:10;stroke-opacity:1;' />
<path d='M 87.6,121.9 L 87.6,119.6 L 89.6,118.5' style='fill:none;stroke:#000000;stroke-width:2.0px;stroke-linecap:butt;stroke-linejoin:miter;stroke-miterlimit:10;stroke-opacity:1;' />
<path class='atom-1' d='M193.955,77.4422 C192.485,78.2899 193.615,80.2508 195.085,79.4031 C196.556,78.5554 197.686,80.5163 196.216,81.3639 C194.745,82.2116 195.875,84.1725 197.346,83.3248 C198.817,82.4771 199.947,84.438 198.476,85.2857 C197.006,86.1334 198.136,88.0942 199.606,87.2466 C201.077,86.3989 202.207,88.3597 200.737,89.2074 C199.266,90.0551 200.396,92.016 201.867,91.1683 C203.338,90.3206 204.468,92.2815 202.997,93.1292 C201.527,93.9768 202.657,95.9377 204.128,95.09 C205.598,94.2424 206.728,96.2032 205.258,97.0509 C203.787,97.8986 204.917,99.8594 206.388,99.0118 C207.859,98.1641 208.989,100.125 207.518,100.973 C206.048,101.82 207.178,103.781 208.649,102.934 C210.119,102.086 211.249,104.047 209.779,104.894 C208.308,105.742 209.438,107.703 210.909,106.855 C212.38,106.008 213.51,107.968 212.039,108.816 C210.569,109.664 211.699,111.625 213.17,110.777 C214.64,109.929 215.77,111.89 214.3,112.738 C212.829,113.586 213.959,115.546 215.43,114.699 C216.901,113.851 218.031,115.812 216.56,116.66' style='fill:none;stroke:#7F7F7F;stroke-width:2.0px;stroke-linecap:butt;stroke-linejoin:miter;stroke-opacity:1' />
<text x='197.0' y='201.2' class='atom-3' style='font-size:27px;font-style:normal;font-weight:normal;fill-opacity:1;stroke:none;font-family:sans-serif;text-anchor:start;fill:#000000' >C</text>
<text x='215.8' y='201.2' class='atom-3' style='font-size:27px;font-style:normal;font-weight:normal;fill-opacity:1;stroke:none;font-family:sans-serif;text-anchor:start;fill:#000000' >H</text>
<text x='234.5' y='212.0' class='atom-3' style='font-size:17px;font-style:normal;font-weight:normal;fill-opacity:1;stroke:none;font-family:sans-serif;text-anchor:start;fill:#000000' >3</text>
<text x='12.8' y='201.0' class='atom-6' style='font-size:27px;font-style:normal;font-weight:normal;fill-opacity:1;stroke:none;font-family:sans-serif;text-anchor:start;fill:#000000' >H</text>
<text x='31.5' y='211.9' class='atom-6' style='font-size:17px;font-style:normal;font-weight:normal;fill-opacity:1;stroke:none;font-family:sans-serif;text-anchor:start;fill:#000000' >3</text>
<text x='40.2' y='201.0' class='atom-6' style='font-size:27px;font-style:normal;font-weight:normal;fill-opacity:1;stroke:none;font-family:sans-serif;text-anchor:start;fill:#000000' >C</text>
<text x='118.7' y='65.3' class='atom-9' style='font-size:27px;font-style:normal;font-weight:normal;fill-opacity:1;stroke:none;font-family:sans-serif;text-anchor:start;fill:#000000' >C</text>
<text x='137.5' y='65.3' class='atom-9' style='font-size:27px;font-style:normal;font-weight:normal;fill-opacity:1;stroke:none;font-family:sans-serif;text-anchor:start;fill:#000000' >H</text>
<text x='156.2' y='76.2' class='atom-9' style='font-size:17px;font-style:normal;font-weight:normal;fill-opacity:1;stroke:none;font-family:sans-serif;text-anchor:start;fill:#000000' >3</text>
</svg>

<svg height="256" viewBox="0 0 256 256" width="256" xmlns="http://www.w3.org/2000/svg"><path d="m0 0h256v256h-256z" fill="#fff"/><g fill="none" stroke-width="2"><path d="m205.3 97.1-39.3 22.6" stroke="#000"/><path d="m166 119.7v45.2" stroke="#000"/><path d="m159.2 123.6v37.4" stroke="#000"/><path d="m166 164.9 29.5 17.1" stroke="#000"/><path d="m166 164.9-39.2 22.6" stroke="#000"/><path d="m126.8 187.5-39.2-22.6" stroke="#000"/><path d="m126.8 179.7-32.4-18.8" stroke="#000"/><path d="m87.6 164.9-29.6 17" stroke="#000"/><path d="m87.6 164.9v-45.3" stroke="#000"/><path d="m87.6 119.6 39.3-22.6" stroke="#000"/><path d="m94.4 123.5 32.5-18.7" stroke="#000"/><path d="m126.9 97v-30.2" stroke="#000"/><path d="m126.9 97 39.1 22.7" stroke="#000"/><path d="m128.7 186.4-1.9 1.1-2-1.1" stroke="#000" stroke-miterlimit="10"/><path d="m87.6 121.9v-2.3l2-1.1" stroke="#000" stroke-miterlimit="10"/><path d="m193.955 77.442c-1.47.848-.34 2.809 1.13 1.961 1.471-.848 2.601 1.113 1.131 1.961-1.471.848-.341 2.809 1.13 1.961s2.601 1.113 1.13 1.961c-1.47.847-.34 2.808 1.13 1.961 1.471-.848 2.601 1.113 1.131 1.96-1.471.848-.341 2.809 1.13 1.961 1.471-.847 2.601 1.114 1.13 1.961-1.47.848-.34 2.809 1.131 1.961 1.47-.848 2.6 1.113 1.13 1.961-1.471.848-.341 2.808 1.13 1.961 1.471-.848 2.601 1.113 1.13 1.961-1.47.847-.34 2.808 1.131 1.961 1.47-.848 2.6 1.113 1.13 1.96-1.471.848-.341 2.809 1.13 1.961 1.471-.847 2.601 1.113 1.13 1.961-1.47.848-.34 2.809 1.131 1.961 1.47-.848 2.6 1.113 1.13 1.961-1.471.848-.341 2.808 1.13 1.961 1.471-.848 2.601 1.113 1.13 1.961" stroke="#7f7f7f"/></g><text font-family="sans-serif" font-size="27" x="197" y="201.2">C</text><text font-family="sans-serif" font-size="27" x="215.8" y="201.2">H</text><text font-family="sans-serif" font-size="17" x="234.5" y="212">3</text><text font-family="sans-serif" font-size="27" x="12.8" y="201">H</text><text font-family="sans-serif" font-size="17" x="31.5" y="211.9">3</text><text font-family="sans-serif" font-size="27" x="40.2" y="201">C</text><text font-family="sans-serif" font-size="27" x="118.7" y="65.3">C</text><text font-family="sans-serif" font-size="27" x="137.5" y="65.3">H</text><text font-family="sans-serif" font-size="17" x="156.2" y="76.2">3</text></svg>
